Numix/16/actions/db-step.svg

<?xml version="1.0" encoding="UTF-8" standalone="no"?>
<svg
   xmlns:dc="http://purl.org/dc/elements/1.1/"
   xmlns:cc="http://creativecommons.org/ns#"
   xmlns:rdf="http://www.w3.org/1999/02/22-rdf-syntax-ns#"
   xmlns:svg="http://www.w3.org/2000/svg"
   xmlns="http://www.w3.org/2000/svg"
   xmlns:sodipodi="http://sodipodi.sourceforge.net/DTD/sodipodi-0.dtd"
   xmlns:inkscape="http://www.inkscape.org/namespaces/inkscape"
   width="16"
   height="16"
   viewBox="0 0 16 16"
   id="svg2"
   version="1.1"
   inkscape:version="0.91 r13725"
   sodipodi:docname="db-step.svg">
  <metadata
     id="metadata18">
    <rdf:RDF>
      <cc:Work
         rdf:about="">
        <dc:format>image/svg+xml</dc:format>
        <dc:type
           rdf:resource="http://purl.org/dc/dcmitype/StillImage" />
        <dc:title></dc:title>
      </cc:Work>
    </rdf:RDF>
  </metadata>
  <defs
     id="defs16" />
  <sodipodi:namedview
     pagecolor="#ffffff"
     bordercolor="#666666"
     borderopacity="1"
     objecttolerance="10"
     gridtolerance="10"
     guidetolerance="10"
     inkscape:pageopacity="0"
     inkscape:pageshadow="2"
     inkscape:window-width="1366"
     inkscape:window-height="704"
     id="namedview14"
     showgrid="false"
     inkscape:zoom="1"
     inkscape:cx="12.146564"
     inkscape:cy="4.2962316"
     inkscape:window-x="0"
     inkscape:window-y="27"
     inkscape:window-maximized="1"
     inkscape:current-layer="svg2"
     inkscape:object-nodes="true">
    <inkscape:grid
       type="xygrid"
       id="grid4146" />
  </sodipodi:namedview>
  <path
     style="opacity:1;fill:#888888;fill-opacity:1;stroke:none;stroke-width:2;stroke-linecap:butt;stroke-linejoin:miter;stroke-miterlimit:4;stroke-dasharray:none;stroke-opacity:1"
     d="M 1,2 1,15 8,15 8,2 Z M 2,3 7,3 7,6 2,6 Z m 0,4 5,0 0,3 -5,0 z m 0,4 5,0 0,3 -5,0 z"
     id="rect4134"
     inkscape:connector-curvature="0"
     sodipodi:nodetypes="cccccccccccccccccccc" />
  <path
     inkscape:connector-curvature="0"
     style="color:#bebebe;fill:#268bd2;fill-opacity:1"
     d="m 12.008223,3 c 5.057075,2.6032156 3.00136,7 -0.984803,7 L 11.01472,12 7,8.499 11.02342,5 l 0,2 c 3.416312,0 2.216826,-2.1734824 0.984803,-4 z"
     id="path4-1"
     sodipodi:nodetypes="ccccccc" />
</svg>

<svg xmlns="http://www.w3.org/2000/svg" viewBox="0 0 16 16">
 <path d="m 1 2 0 13 7 0 0 -13 m -6 1 5 0 0 3 -5 0 m 0 1 5 0 0 3 -5 0 z m 0 4 5 0 0 3 -5 0 z" style="fill:#888;opacity:1;fill-opacity:1;stroke:none"/>
 <path d="m 12.01 3 c 5.057 2.603 3 7 -0.985 7 l -0.009 2 -4.01 -3.501 4.02 -3.499 l 0 2 c 3.416 0 2.217 -2.173 0.985 -4 z" style="fill:#268bd2;fill-opacity:1;color:#bebebe"/>
</svg>
